X:1
T:Title
%%score ( 1 2 ) 3
L:1/8
Q:1/4=120
M:4/4
K:F
V:1 treble nm="Strings 1, Soprano"
V:2 treble 
V:3 bass nm="Strings 1, Bass"
V:1
 z4 z2 [CF]>[CG] | [FA]2 [FA]2 [CF]2 [A,C]>[A,C] | [B,D]2 [B,F]2 [B,D] [A,C]3 | %3
w: 1.~Praise~ the~|Lord!~ my~ heart~ with~ His~|love~ is~ beam ing,~|
 [CF]2 [CF]>[CF] [EG]2 [EG]2 | [FA]6 [CF]>[CG] | [FA]2 [FA]2 [CF]2 [A,C]>[A,C] | %6
w: I~ am~ a~ child~ of~|God;~ Heav en's~|gold en~ light~ o ver~|
 [B,D]2 [B,F]2 [B,D] [A,C]3 | [CF]2 F>F [EG]2 [EG]2 | [CF]6 z2 | [Fc]2 [Fc]>[Fc] [Fd]2 [Fd]2 | %10
w: me~ is~ stream ing,~|I~ am~ a~ child~ of~|God.~||
 c6 z2 | [CF]2 [CF]>[CF] [FA]2 [FA]2 | G6 [CF]>[CG] | [FA]2 [FA]2 [CF]2 [A,C]>[A,C] | %14
w: ||||
 [B,D]2 [B,F]2 [B,D] [A,C]3 | [CF]2 F>F [EG]2 [EG]2 | [CF]6 z2 |] %17
w: |||
V:2
 x8 | x8 | x8 | x8 | x8 | x8 | x8 | x8 | x8 | x8 | F2 E2 F2 z2 | x8 | x8 | x8 | x8 | x8 | x8 |] %17
V:3
 z4 z2 [F,A,]>[F,B,] | [F,C]2 [F,C]2 [F,A,]2 F,>F, | [B,,F,]2 [D,F,]2 F, F,3 | %3
 [F,A,]2 [F,A,]>[F,A,] [C,C]2 [C,C]2 | [F,C]6 [F,A,]>[F,B,] | [F,C]2 [F,C]2 [F,A,]2 F,>F, | %6
 [B,,F,]2 [D,F,]2 F, F,3 | [F,A,]2 [D,A,]>[D,A,] [C,C]2 [C,B,]2 | [F,,F,A,]6 z2 | %9
 [F,A,]2 [F,A,]>[F,A,] [B,,B,]2 [B,,B,]2 | [F,A,]2 [G,B,]2 [A,C]2 z2 | %11
 [F,A,]2 [F,A,]>[F,A,] [F,C]2 [F,C]2 | [E,B,]2 [D,=B,]2 [C,C]2 [F,A,]>[F,_B,] | %13
 [F,C]2 [F,C]2 [F,A,]2 F,>F, | [B,,F,]2 [D,F,]2 F, F,3 | [F,A,]2 [D,A,]>[D,A,] [C,C]2 [C,B,]2 | %16
 [F,,F,A,]6 z2 |] %17

